Front-end/assets/images/icons/Female.svg

<svg width="48" height="48" viewBox="0 0 48 48" fill="none" xmlns="http://www.w3.org/2000/svg">
<path fill-rule="evenodd" clip-rule="evenodd" d="M22 25.9908V42.0092C22 43.1018 22.8954 44 24 44C25.1122 44 26 43.1087 26 42.0092V25.9908C26 25.9256 25.9968 25.8611 25.9905 25.7974C28.4864 25.2287 30.4741 23.5045 31.9837 21.0478C33.0325 19.341 33.6517 17.6608 33.9423 16.4768C34.2056 15.4041 33.5495 14.321 32.4767 14.0577C31.404 13.7944 30.3209 14.4505 30.0576 15.5233C30.0131 15.7045 29.9037 16.0714 29.7242 16.5587C29.4214 17.3803 29.0383 18.2008 28.5758 18.9536C27.8208 20.1821 26.9675 21.0648 26 21.5545V19.9976C26 18.8979 25.1045 17.9995 24 17.9995C22.8877 17.9995 22 18.8941 22 19.9976V21.468C21.0475 20.9595 20.2068 20.098 19.4643 18.9287C18.9872 18.1773 18.5926 17.3588 18.2811 16.5394C18.0965 16.0539 17.9843 15.689 17.9389 15.5097C17.6681 14.4389 16.5805 13.7903 15.5097 14.0611C14.4388 14.3319 13.7902 15.4195 14.061 16.4903C14.3615 17.6786 15.002 19.3632 16.0875 21.0728C17.5936 23.4447 19.559 25.1293 22.015 25.7445C22.0051 25.8252 22 25.9074 22 25.9908ZM1.08612 8.87871C1.47291 7.14569 1.86907 5.91727 2.15257 5.23378C2.57577 4.21349 3.74594 3.72945 4.76622 4.15265C5.78651 4.57584 6.27055 5.74601 5.84735 6.76629C5.80765 6.86201 5.18685 8.86836 4.99007 9.75002C4.16767 13.4348 3.75683 17.86 4.18955 22.8826C4.5385 26.933 5.17527 30.6472 5.89465 34.0431C6.3337 36.1158 6.80277 37.9313 7.26985 39.4745C7.43154 40.0086 7.84246 41.2193 7.86622 41.2809C8.26336 42.3117 7.74975 43.4692 6.71905 43.8663C5.68834 44.2634 4.53085 43.7498 4.13371 42.7191C3.98744 42.3395 3.74587 41.6392 3.44139 40.6333C2.94196 38.9833 2.4445 37.0579 1.98148 34.8721C1.22882 31.319 0.572595 27.4347 0.209285 23.2176C-0.259683 17.7742 0.177522 12.9497 1.08612 8.87871ZM46.9333 8.87871C47.8419 12.9497 48.2791 17.7742 47.8101 23.2176C47.4468 27.4347 46.7906 31.319 46.0379 34.8721C45.5749 37.0579 45.0775 38.9833 44.578 40.6333C44.2736 41.6392 44.032 42.3395 43.8857 42.7191C43.4886 43.7498 42.3311 44.2634 41.3004 43.8663C40.2697 43.4692 39.7561 42.3117 40.1532 41.2809C40.177 41.2193 40.5879 40.0086 40.7496 39.4745C41.2167 37.9313 41.6857 36.1158 42.1248 34.0431C42.8442 30.6472 43.4809 26.933 43.8299 22.8826C44.2626 17.86 43.8518 13.4348 43.0294 9.75002C42.8326 8.86836 42.2118 6.86201 42.1721 6.76629C41.7489 5.74601 42.2329 4.57584 43.2532 4.15265C44.2735 3.72945 45.4437 4.21349 45.8668 5.23378C46.1503 5.91727 46.5465 7.14569 46.9333 8.87871Z" fill="black"/>
</svg>

<svg width="48" height="48" fill="none" xmlns="http://www.w3.org/2000/svg"><path fill-rule="evenodd" clip-rule="evenodd" d="M22 25.99v16.02A2 2 0 0024 44c1.112 0 2-.891 2-1.99V25.99c0-.064-.003-.129-.01-.193 2.496-.568 4.484-2.293 5.994-4.75 1.048-1.706 1.668-3.386 1.958-4.57a2 2 0 10-3.884-.954 10.78 10.78 0 01-.334 1.036 13.566 13.566 0 01-1.148 2.395c-.755 1.228-1.608 2.11-2.576 2.6v-1.556a2 2 0 00-4 0v1.47c-.953-.509-1.793-1.37-2.536-2.54a13.302 13.302 0 01-1.183-2.389c-.184-.485-.297-.85-.342-1.03a2 2 0 00-3.878.981c.3 1.189.941 2.873 2.026 4.583 1.507 2.372 3.472 4.056 5.928 4.671a2.01 2.01 0 00-.015.247zM1.086 8.88c.387-1.733.783-2.962 1.067-3.645a2 2 0 113.694 1.532c-.04.096-.66 2.102-.857 2.984-.822 3.685-1.233 8.11-.8 13.133.348 4.05.985 7.764 1.705 11.16a66.313 66.313 0 001.375 5.431c.162.535.572 1.745.596 1.807a2 2 0 11-3.732 1.438 32.51 32.51 0 01-.693-2.086 70.905 70.905 0 01-1.46-5.76C1.23 31.318.573 27.434.21 23.217c-.469-5.444-.031-10.268.877-14.34zm45.847 0c.909 4.07 1.346 8.895.877 14.339-.363 4.217-1.02 8.101-1.772 11.654a70.246 70.246 0 01-1.46 5.761 32.442 32.442 0 01-.692 2.086 2 2 0 11-3.733-1.438 67.82 67.82 0 00.597-1.806 66.326 66.326 0 001.375-5.432c.72-3.396 1.356-7.11 1.705-11.16.433-5.023.022-9.448-.8-13.133-.197-.882-.818-2.888-.858-2.984a2 2 0 113.695-1.532c.283.683.68 1.912 1.066 3.645z" fill="#000"/></svg>
